!!!COM: Paul Hindemith
!!!OTL: [T673_Hin-w97p3s1-4]
**kern	**dynam	**kern	**dynam	**kern	**dynam	**kern	**dynam
*grp:A	*grp:A	*grp:B	*grp:B	*grp:B	*grp:A	*grp:A	*
*part4	*part4	*part3	*part3	*part2	*part2	*part1	*part1
*staff4	*	*staff3	*	*staff2	*	*staff1	*
*I"Horn 4	*	*I"Horn 3	*	*I"Horn 2	*	*I"Horn 1	*
*I'Hn. 4	*	*I'Hn. 3	*	*I'Hn. 2	*	*I'Hn. 1	*
*clefG2	*	*clefG2	*	*clefG2	*	*clefG2	*
*ITrd4c7	*	*ITrd4c7	*	*ITrd4c7	*	*ITrd4c7	*
*k[b-]	*	*k[b-]	*	*k[b-]	*	*k[b-]	*
*	*	*	*	*	*	*	*
*M4/4	*	*M4/4	*	*M4/4	*	*M4/4	*
=1	=1	=1	=1	=1	=1	=1	=1
!	!	!	!	!	!	!LO:TX:i::t=Fugato	!
!	!	!	!	!	!	!LO:TX:t=Sehr Langsam ([quarter]= 45)	!
1r	.	1ryy	.	1ryy	.	8r	.
!	!	!	!	!	!	!	!LO:DY:t=%s  espr.
.	.	.	.	.	.	4.B-~	4ryy
.	.	.	.	.	.	4.f~	.
.	.	.	.	.	.	(8e-X	.
=2	=2	=2	=2	=2	=2	=2	=2
1r	.	1ryy	.	1ryy	.	8fL	.
.	.	.	.	.	.	8f#XJ)	.
.	.	.	.	.	.	[4d^	.
.	.	.	.	.	.	4.d]	.
.	.	.	.	.	.	8d-X	.
=3	=3	=3	=3	=3	=3	=3	=3
1r	.	1ryy	.	2ryy	.	4A-X	.
.	.	.	.	.	.	4c-X	.
.	.	.	.	8ryy	.	(4.B-	.
!	!	!	!	!	!LO:DY:t=%s  espr.	!	!
.	.	.	.	4.ryy	p	.	.
.	.	.	.	.	.	8c)	.
=4	=4	=4	=4	=4	=4	=4	=4
1r	.	1ryy	.	4.ryy	.	2c	.
.	.	.	.	8ryy	.	.	.
.	.	.	.	8ryy	.	(8d-X	.
.	.	.	.	8ryy	.	4g-X	.
.	.	.	.	4ryy	.	.	.
.	.	.	.	.	.	8f)	.
=5	=5	=5	=5	=5	=5	=5	=5
1r	.	1ryy	.	4.ryy	.	(4f	.
.	.	.	.	.	.	4B-)	.
.	.	.	.	8ryy	.	.	.
.	.	.	.	4ryy	.	4.e-X	.
.	.	.	.	4ryy	.	.	.
.	.	.	.	.	.	8d-X	.
=6	=6	=6	=6	=6	=6	=6	=6
2r	.	1ryy	.	2ryy	.	(4d-X	.
.	.	.	.	.	.	8c)	.
.	.	.	.	.	.	8r	.
8r	.	.	.	4.ryy	<	(4d-	4ryy
!	!LO:DY:t=%s  espr.	!	!	!	!	!	!
4.BB-~	p	.	.	.	.	.	.
.	.	.	.	.	.	8e-X)	.
.	.	.	.	8ryy	.	8r	.
!!linebreak:original
=7	=7	=7	=7	=7	=7	=7	=7
4.F~	<	1ryy	.	4ryy	.	(4e-X	.
.	.	.	.	4ryy	.	8d-X)	.
(8E-X	.	.	.	.	.	8r	.
8FL	.	.	.	4.ryy	.	(4e-	.
8F#XJ)	.	.	.	.	.	.	.
[4D^	.	.	.	.	.	8f)	.
.	.	.	.	8ryy	.	8r	.
=8	=8	=8	=8	=8	=8	=8	=8
4D]	.	2ryy	.	4ryy	.	8fL	.
.	.	.	.	.	.	8e-XJ	.
4C#X	.	.	.	4ryy	.	[4f	.
4.BBX	mf	8ryy	.	4.ryy	.	8fL]	.
.	.	4.ryy	4ryy	.	.	8f#XJ	.
.	.	.	.	.	.	4g#X	.
8r	.	.	.	8ryy	.	.	.
!!LO:REH:t=A
=9	=9	=9	=9	=9	=9	=9	=9
1r	.	4.ryy	.	4ryy	mf	8r	.
.	.	.	.	.	.	4.d~	4ryy
.	.	.	.	4ryy	.	.	.
.	.	8ryy	.	.	.	.	.
.	.	8ryy	.	2ryy	.	4.a~	.
.	.	8ryy	.	.	.	.	.
.	.	4ryy	.	.	.	.	.
.	.	.	.	.	.	(8g	.
=10	=10	=10	=10	=10	=10	=10	=10
2r	.	4ryy	.	1ryy	.	8aL	.
.	.	.	.	.	.	8b-J)	.
.	.	4ryy	.	.	.	2f^	.
8r	.	2ryy	.	.	.	.	.
4.F~	mf	.	.	.	.	.	.
.	.	.	.	.	.	4e-X	.
=11	=11	=11	=11	=11	=11	=11	=11
4.c~	.	1ryy	.	8ryy	.	(4f	4ryy
.	.	.	.	4.ryy	mf	.	.
.	.	.	.	.	<	8e-X)	.
(8B-	<	.	.	.	.	8r	.
8cL	.	.	.	4.ryy	.	(4f	.
8d-XJ)	.	.	.	.	.	.	.
(4A-X^	.	.	.	.	.	8g-X)	.
.	.	.	.	8ryy	.	8r	.
=12	=12	=12	=12	=12	=12	=12	=12
4.G-X	.	2ryy	.	8ryy	.	(4a-X	.
.	.	.	.	8ryy	.	.	.
.	.	.	.	2.ryy	f	4a)	.
8F)	.	.	.	.	.	.	.
8r	.	4ryy	4ryy	.	.	8r	.
4.En~	f	.	.	.	.	4.e~	4ryy
.	.	8ryy	.	.	.	.	.
.	.	8ryy	.	.	.	.	.
!!linebreak:original
=13	=13	=13	=13	=13	=13	=13	=13
4.BX~	.	2ryy	.	4ryy	.	4.bX~	.
.	.	.	.	8ryy	.	.	.
(8A	.	.	.	8ryy	.	(8a	.
8BL	.	4ryy	.	4ryy	.	8bL	.
8cJ)	.	.	.	.	.	8ccJ)	.
[4A-X^	.	4ryy	.	8ryy	.	[4a-X^	.
.	.	.	.	8ryy	.	.	.
=14	=14	=14	=14	=14	=14	=14	=14
(8A-L]	.	2ryy	.	4ryy	.	4.a-]	.
8GJ)	.	.	.	.	.	.	.
4F	.	.	.	8ryy	.	.	.
.	.	.	.	8ryy	.	8g-X	.
4D-X	.	4ryy	.	8ryy	.	4.a-X	.
.	.	.	.	8ryy	.	.	.
4C-X	.	4ryy	.	8ryy	.	.	.
.	.	.	.	8ryy	.	8e-X	.
=15	=15	=15	=15	=15	=15	=15	=15
[1BB-	.	8ryy	.	8ryy	.	4f	.
.	.	4.ryy	4ryy	8ryy	.	.	.
.	.	.	.	4ryy	.	4r	.
.	.	4.ryy	.	4ryy	.	8r	.
.	.	.	.	.	.	4.d-X~	.
.	.	.	.	4ryy	.	.	.
.	.	8ryy	.	.	.	.	.
!!LO:REH:t=B
=16	=16	=16	=16	=16	=16	=16	=16
1BB-]	.	8ryy	.	2ryy	.	4.a-X~	.
.	.	8ryy	.	.	.	.	.
.	.	4ryy	.	.	.	.	.
.	>	.	4ryy	.	>	(8g-X	4ryy
.	.	4.ryy	.	2ryy	.	8a-L	.
.	.	.	.	.	.	8aJ)	.
.	.	.	.	.	.	[4e^	.
.	.	8ryy	.	.	.	.	.
=17	=17	=17	=17	=17	=17	=17	=17
[1BB-	.	4ryy	.	4ryy	.	8eL]	.
.	.	.	.	.	.	8f#XJ	.
.	.	4ryy	.	8ryy	.	[4g	.
.	.	.	.	8ryy	.	.	.
.	.	4ryy	.	4ryy	.	8gL]	.
.	.	.	.	.	.	8f	.
.	.	4ryy	4ryy	8ryy	.	8g	.
.	.	.	4ryy	8ryy	.	8a-XJ	.
!!pagebreak:original
=18	=18	=18	=18	=18	=18	=18	=18
4BB-]	.	4ryy	.	8ryy	.	(4.e-X	.
.	.	.	.	4.ryy	.	.	.
4F	.	8ryy	.	.	.	.	.
.	.	8ryy	.	.	.	8f	.
4.D-X	.	8ryy	4ryy	4ryy	.	4g-X)	.
.	.	8ryy	.	.	.	.	.
.	.	8ryy	.	4ryy	.	8e-L	.
8E-X	.	8ryy	4ryy	.	.	8d-XJ	.
=19	=19	=19	=19	=19	=19	=19	=19
2C	.	8ryy	.	1ryy	.	4.c	.
.	.	4.ryy	4ryy	.	.	.	.
.	.	.	.	.	.	8B-	.
4Dn	.	4.ryy	.	.	.	4.c	.
4G	.	.	.	.	.	.	.
.	.	8ryy	.	.	.	8d-X	.
=20	=20	=20	=20	=20	=20	=20	=20
*M3/4	*	*M3/4	*	*M3/4	*	*M3/4	*
4F	.	2ryy	.	2ryy	.	2c	.
4E-X	.	.	.	.	.	.	.
!	!LO:DY:t=%s  espr.	!	!	!	!LO:DY:t=%s  espr.	!	!LO:DY:t=%s  espr.
4D-X	p	4ryy	.	4ryy	p	8cL	4ryy
.	.	.	.	.	.	8B-J	.
=21	=21	=21	=21	=21	=21	=21	=21
*M5/4	*	*M5/4	*	*M5/4	*	*M5/4	*
8C~L	.	4ryy	.	2ryy	.	(4.c	.
8BB-~J	.	.	.	.	.	.	.
(4AA	.	4ryy	.	.	.	.	.
.	.	.	.	.	.	8d-X	.
4AA-X)	.	2ryy	4ryy	2ryy	.	4D-X)	.
[2A-X	.	.	.	.	.	(4.E-X	.
.	.	4ryy	4ryy	4ryy	.	.	.
.	.	.	.	.	.	8d-)	.
=22	=22	=22	=22	=22	=22	=22	=22
*M3/4	*	*M3/4	*	*M3/4	*	*M3/4	*
4A-]	.	2.ryy	4ryy	2ryy	.	(4d-X	.
2G	.	.	.	.	.	2c)	.
.	>	.	4ryy	8ryy	>	.	4ryy
.	.	.	.	8ryy	.	.	.
=23	=23	=23	=23	=23	=23	=23	=23
2.F	]]	2.ryy	4ryy	2.ryy	]]	2.F	4ryy
==	==	==	==	==	==	==	==
*-	*-	*-	*-	*-	*-	*-	*-
!!!system-decoration: [(s1,s2,s3,s4)]
!!!RDF**dynam: > = dim.
!!!EED: Daniel Wright
!!!EEV: 2021/12/17
